Simply black circles/symbolic/panel/audio-volume-muted-symbolic.svg

<?xml version="1.0" encoding="UTF-8" standalone="no"?>
<!-- Created with Inkscape (http://www.inkscape.org/) -->

<svg
   xmlns:dc="http://purl.org/dc/elements/1.1/"
   xmlns:cc="http://creativecommons.org/ns#"
   xmlns:rdf="http://www.w3.org/1999/02/22-rdf-syntax-ns#"
   xmlns:svg="http://www.w3.org/2000/svg"
   xmlns="http://www.w3.org/2000/svg"
   xmlns:sodipodi="http://sodipodi.sourceforge.net/DTD/sodipodi-0.dtd"
   xmlns:inkscape="http://www.inkscape.org/namespaces/inkscape"
   version="1.1"
   id="svg2"
   width="24"
   height="24"
   viewBox="0 0 24 24"
   sodipodi:docname="audio-volume-muted-symbolic.svg"
   inkscape:version="0.92.3 (2405546, 2018-03-11)">
  <metadata
     id="metadata8">
    <rdf:RDF>
      <cc:Work
         rdf:about="">
        <dc:format>image/svg+xml</dc:format>
        <dc:type
           rdf:resource="http://purl.org/dc/dcmitype/StillImage" />
        <dc:title></dc:title>
      </cc:Work>
    </rdf:RDF>
  </metadata>
  <defs
     id="defs6">
    <clipPath
       clipPathUnits="userSpaceOnUse"
       id="clipPath865">
      <g
         id="use867"
         inkscape:label="Clip"
         style="fill:#333333">
        <ellipse
           style="opacity:0.75;fill:#333333;fill-opacity:1;stroke:none;stroke-width:0.8300938;stroke-opacity:1"
           id="ellipse897"
           cx="24.009954"
           cy="23.905632"
           rx="19.922251"
           ry="19.837833" />
      </g>
    </clipPath>
    <clipPath
       clipPathUnits="userSpaceOnUse"
       id="clipPath869">
      <g
         id="use871"
         inkscape:label="Clip"
         style="fill:#333333">
        <ellipse
           style="opacity:0.75;fill:#333333;fill-opacity:1;stroke:none;stroke-width:0.8300938;stroke-opacity:1"
           id="ellipse901"
           cx="24.009954"
           cy="23.905632"
           rx="19.922251"
           ry="19.837833" />
      </g>
    </clipPath>
    <clipPath
       clipPathUnits="userSpaceOnUse"
       id="clipPath877">
      <g
         id="use879"
         inkscape:label="Clip"
         style="fill:#333333">
        <ellipse
           style="opacity:0.75;fill:#333333;fill-opacity:1;stroke:none;stroke-width:0.8300938;stroke-opacity:1"
           id="ellipse909"
           cx="24.009954"
           cy="23.905632"
           rx="19.922251"
           ry="19.837833" />
      </g>
    </clipPath>
    <clipPath
       clipPathUnits="userSpaceOnUse"
       id="clipPath881">
      <g
         id="use883"
         inkscape:label="Clip"
         style="fill:#333333">
        <ellipse
           style="opacity:0.75;fill:#333333;fill-opacity:1;stroke:none;stroke-width:0.8300938;stroke-opacity:1"
           id="ellipse913"
           cx="24.009954"
           cy="23.905632"
           rx="19.922251"
           ry="19.837833" />
      </g>
    </clipPath>
    <clipPath
       clipPathUnits="userSpaceOnUse"
       id="clipPath877-3">
      <g
         id="use879-6"
         inkscape:label="Clip"
         style="fill:#333333">
        <ellipse
           style="opacity:0.75;fill:#333333;fill-opacity:1;stroke:none;stroke-width:0.8300938;stroke-opacity:1"
           id="ellipse909-7"
           cx="24.009954"
           cy="23.905632"
           rx="19.922251"
           ry="19.837833" />
      </g>
    </clipPath>
    <clipPath
       clipPathUnits="userSpaceOnUse"
       id="clipPath873">
      <g
         id="use875"
         inkscape:label="Clip"
         style="fill:#333333">
        <ellipse
           style="opacity:0.75;fill:#333333;fill-opacity:1;stroke:none;stroke-width:0.8300938;stroke-opacity:1"
           id="ellipse905"
           cx="24.009954"
           cy="23.905632"
           rx="19.922251"
           ry="19.837833" />
      </g>
    </clipPath>
    <clipPath
       clipPathUnits="userSpaceOnUse"
       id="clipPath869-5">
      <g
         id="use871-3"
         inkscape:label="Clip"
         style="fill:#333333">
        <ellipse
           style="opacity:0.75;fill:#333333;fill-opacity:1;stroke:none;stroke-width:0.8300938;stroke-opacity:1"
           id="ellipse901-5"
           cx="24.009954"
           cy="23.905632"
           rx="19.922251"
           ry="19.837833" />
      </g>
    </clipPath>
    <clipPath
       clipPathUnits="userSpaceOnUse"
       id="clipPath865-6">
      <g
         id="use867-2"
         inkscape:label="Clip"
         style="fill:#333333">
        <ellipse
           style="opacity:0.75;fill:#333333;fill-opacity:1;stroke:none;stroke-width:0.8300938;stroke-opacity:1"
           id="ellipse897-9"
           cx="24.009954"
           cy="23.905632"
           rx="19.922251"
           ry="19.837833" />
      </g>
    </clipPath>
  </defs>
  <sodipodi:namedview
     pagecolor="#ffffff"
     bordercolor="#666666"
     borderopacity="1"
     objecttolerance="10"
     gridtolerance="10"
     guidetolerance="10"
     inkscape:pageopacity="0"
     inkscape:pageshadow="2"
     inkscape:window-width="1366"
     inkscape:window-height="719"
     id="namedview4"
     showgrid="false"
     inkscape:zoom="22.166667"
     inkscape:cx="12"
     inkscape:cy="12"
     inkscape:window-x="0"
     inkscape:window-y="25"
     inkscape:window-maximized="1"
     inkscape:current-layer="svg2"
     inkscape:snap-smooth-nodes="true"
     showguides="true"
     inkscape:guide-bbox="true" />
  <path
     style="opacity:1;fill:#808080;fill-opacity:1;stroke:none;stroke-width:0;stroke-miterlimit:4;stroke-dasharray:none;stroke-opacity:1"
     d="M 9.0820312 2.8261719 A 9.8846347 9.9350655 0 0 0 2.328125 12.25 A 9.8846347 9.9350655 0 0 0 9.0820312 21.673828 L 9.0820312 2.8261719 z M 11.259766 11.40625 L 11.259766 13.144531 L 13.234375 13.144531 L 13.234375 11.40625 L 11.259766 11.40625 z M 15.259766 11.40625 L 15.259766 13.144531 L 17.234375 13.144531 L 17.234375 11.40625 L 15.259766 11.40625 z M 19.259766 11.40625 L 19.259766 13.144531 L 21.234375 13.144531 L 21.234375 11.40625 L 19.259766 11.40625 z "
     id="path840" />
</svg>

<svg xmlns="http://www.w3.org/2000/svg" width="24" height="24"><path d="M9.082 2.826a9.885 9.935 0 0 0-6.754 9.424 9.885 9.935 0 0 0 6.754 9.424V2.826zm2.178 8.58v1.739h1.974v-1.739H11.26zm4 0v1.739h1.974v-1.739H15.26zm4 0v1.739h1.974v-1.739H19.26z" fill="gray"/></svg>
